X:1
T:Whistling Thief
C:Northumbrian Jig
M:6/8
K:G
L: 1/8
Q:1/4=180
e3 |: "G" d2 B B2 A | B3 B2 e | d2 B Bcd | "C" e2 e efg | "G" d2 B B2 A | B3 B2 d |
"C" e2 e "D" fef |1 "G" g3 gfe :|2 "G" g3 gag |: "D" fgf "C" efe | "G" def g2 g |
"D" fgf "C" efe | "G" ded "D7" cBA | "G" G2 G BAG | "Em" (g3 g2) e | "G" d2 B BAG |
"C" (g3 g2) e | "G" d2 B "D" ABA |1 "G" (G3 G2) g :|2 "G" G3 e3 |]

